X: 31
T: Har ha shi
L: 1/8
M: 3/4
K: D
(3:2:8D2 F E F E D F G [I:setbarnb 1]| 
A6 | 
[M:2/4]A Ae2- | 
e4 | 
[M:3/4]d2d2B2 | 
d c (3B A B | 
F4E2 | 
D G FG3 | 
G A Bd3 | 
F E FE3 | 
D6 | 
D2<B2-B2 | 
A2<d2-d2 | 
[M:2/4]A =cB2 | 
A B (3F E D | 
D4 | 
[M:3/4]D E FG3 | 
G A Bd3 | 
(3F E FE3D | 
D6 |]

@@@ Tune index: 8699
